client/src/assets/images/icon-patient-in-bed.svg

<svg fill="none" height="24" viewBox="0 0 24 24" width="24" xmlns="http://www.w3.org/2000/svg"><path clip-rule="evenodd" d="m7 13c1.66 0 3-1.34 3-3s-1.34-3-3-3-3 1.34-3 3 1.34 3 3 3zm12-6h-8v7h-8v-9h-2v15h2v-3h18v3h2v-9c0-2.21-1.79-4-4-4z" fill="#06b9ff" fill-rule="evenodd"/></svg>

<svg width="24" height="24" viewBox="0 0 24 24" fill="none" xmlns="http://www.w3.org/2000/svg">
<path fill-rule="evenodd" clip-rule="evenodd" d="M7 13C8.66 13 10 11.66 10 10C10 8.34 8.66 7 7 7C5.34 7 4 8.34 4 10C4 11.66 5.34 13 7 13ZM19 7H11V14H3V5H1V20H3V17H21V20H23V11C23 8.79 21.21 7 19 7Z" fill="#06b9ff"/>
</svg>
